X: 32916
T: Powerhouse
R: jig
M: 6/8
K: Gmajor
|:GA|BcB ABA|GED E2 A|B2A B^cd|GFG AFD|
EGG GAA|B2e dBA|G2B AFD|FED E:|
|:FA|Bee e2f|gfe fdB|Add d2e|fef def|
Bee e2f|gfe fdA|BdB AGF|1 GEE E:|2 GEE E3

